;FLAVOR:UltiGCode
;TIME:4755
;MATERIAL:11596
;MATERIAL2:0
;NOZZLE_DIAMETER:0.8
;Generated with Cura_SteamEngine 3.4.1
M82 ;absolute extrusion mode

G92 E0
G10
;LAYER_COUNT:98
;LAYER:0
M107
G0 F5400 X89.503 Y143.136 Z0.53
;TYPE:SKIRT
G11
G1 F1800 X89.925 Y142.899 E0.17956
G1 X90.484 Y142.628 E0.41004
G1 X91.012 Y142.416 E0.62113
G1 X91.565 Y142.281 E0.83231
G1 X92.248 Y142.222 E1.08665
G1 X126.381 Y142.196 E13.75
G1 X127.032 Y142.248 E13.99229
G1 X127.643 Y142.347 E14.22192
G1 X128.197 Y142.477 E14.43304
G1 X128.727 Y142.684 E14.64414
G1 X129.441 Y143.117 E14.95394
G1 X129.895 Y143.461 E15.16526
G1 X130.323 Y143.836 E15.37637
G1 X130.695 Y144.266 E15.58732
G1 X131.015 Y144.769 E15.80849
G1 X131.268 Y145.239 E16.00652
G1 X131.502 Y145.758 E16.21774
G1 X131.661 Y146.304 E16.42872
G1 X131.748 Y146.973 E16.67901
G1 X131.808 Y148.28 E17.16441
G1 X131.812 Y148.468 E17.23418
G1 X131.803 Y171.428 E25.75234
G1 X131.763 Y171.995 E25.96322
G1 X131.648 Y172.536 E26.16841
G1 X131.426 Y173.315 E26.46893
G1 X131.232 Y173.85 E26.68006
G1 X130.965 Y174.352 E26.89101
G1 X130.63 Y174.812 E27.10213
G1 X130.235 Y175.22 E27.31281
G1 X129.79 Y175.619 E27.53455
G1 X129.341 Y175.968 E27.74553
G1 X128.847 Y176.251 E27.95675
G1 X128.472 Y176.41 E28.10787
G1 X128.126 Y176.536 E28.24448
G1 X127.579 Y176.692 E28.45551
G1 X126.743 Y176.78 E28.76738
G1 X92.619 Y176.804 E41.42738
G1 X91.968 Y176.752 E41.66967
G1 X91.357 Y176.653 E41.89931
G1 X90.803 Y176.523 E42.11043
G1 X90.273 Y176.316 E42.32152
G1 X89.707 Y175.99 E42.56385
G1 X89.321 Y175.724 E42.73777
G1 X88.876 Y175.369 E42.94896
G1 X88.486 Y174.955 E43.15997
G1 X88.184 Y174.535 E43.35189
G1 X87.891 Y174.066 E43.55705
G1 X87.624 Y173.563 E43.76833
G1 X87.431 Y173.029 E43.97899
G1 X87.349 Y172.684 E44.11055
G1 X87.281 Y172.33 E44.24428
G1 X87.208 Y171.562 E44.53049
G1 X87.23 Y147.236 E53.55544
G1 X87.27 Y146.669 E53.76632
G1 X87.39 Y146.113 E53.97735
G1 X87.522 Y145.73 E54.12764
G1 X87.69 Y145.312 E54.29478
G1 X87.939 Y144.8 E54.506
G1 X88.399 Y144.156 E54.79962
G1 X88.643 Y143.877 E54.93713
G1 X89.047 Y143.476 E55.14831
G1 X89.503 Y143.136 E55.35933
G0 F5400 X89.961 Y143.675
G1 F1800 X90.231 Y143.529 E55.47321
G1 X90.79 Y143.258 E55.70369
G1 X91.271 Y143.069 E55.89542
G1 X91.776 Y142.956 E56.08741
G1 X92.248 Y142.922 E56.26297
G1 X126.381 Y142.896 E68.92632
G1 X126.92 Y142.939 E69.12692
G1 X127.531 Y143.038 E69.35656
G1 X128.034 Y143.16 E69.54858
G1 X128.512 Y143.358 E69.74053
G1 X129.018 Y143.675 E69.96206
G1 X129.472 Y144.019 E70.17338
G1 X129.859 Y144.362 E70.36523
G1 X130.189 Y144.761 E70.55733
G1 X130.399 Y145.101 E70.70559
G1 X130.652 Y145.571 E70.90362
G1 X130.861 Y146.044 E71.09547
G1 X130.995 Y146.544 E71.28752
G1 X131.048 Y147.005 E71.45968
G1 X131.108 Y148.312 E71.94508
G1 X131.112 Y148.467 E72.00261
G1 X131.103 Y171.427 E80.52077
G1 X131.063 Y171.943 E80.71278
G1 X130.975 Y172.344 E80.86509
G1 X130.753 Y173.123 E81.16561
G1 X130.573 Y173.608 E81.35753
G1 X130.321 Y174.06 E81.54953
G1 X130.002 Y174.467 E81.74138
G1 X129.767 Y174.699 E81.86389
G1 X129.322 Y175.098 E82.08563
G1 X128.912 Y175.413 E82.27745
G1 X128.232 Y175.752 E82.55934
G1 X127.886 Y175.878 E82.69596
G1 X127.388 Y176.017 E82.88778
G1 X126.742 Y176.08 E83.12858
G1 X92.618 Y176.104 E95.78859
G1 X92.08 Y176.061 E95.98882
G1 X91.469 Y175.962 E96.21846
G1 X90.966 Y175.84 E96.41048
G1 X90.488 Y175.642 E96.60243
G1 X90.104 Y175.413 E96.7683
G1 X89.718 Y175.147 E96.94222
G1 X89.316 Y174.822 E97.13401
G1 X88.969 Y174.438 E97.32602
G1 X88.778 Y174.164 E97.44993
G1 X88.485 Y173.695 E97.6551
G1 X88.245 Y173.236 E97.84726
G1 X88.036 Y172.552 E98.11261
G1 X87.968 Y172.198 E98.24634
G1 X87.908 Y171.563 E98.48298
G1 X87.93 Y147.237 E107.50793
G1 X87.97 Y146.721 E107.69994
G1 X88.172 Y145.991 E107.98094
G1 X88.34 Y145.573 E108.14808
G1 X88.569 Y145.109 E108.34005
G1 X88.926 Y144.617 E108.56557
G1 X89.17 Y144.338 E108.70308
G1 X89.54 Y143.976 E108.89512
G1 X89.961 Y143.675 E109.08712
G10
G0 F5400 X91.545 Y145.643
G0 X92.548 Y147.308
G0 X126.012 Y148.338
;TYPE:WALL-INNER
G11
G1 F1800 X126.012 Y171.011 E117.49881
G1 X93.338 Y171.012 E129.62086
G1 X92.988 Y171.012 E129.75071
G1 X92.988 Y170.662 E129.83474
G1 X92.988 Y147.989 E138.24643
G1 X125.662 Y147.988 E150.36848
G1 X126.012 Y147.988 E150.49833
G1 X126.012 Y148.338 E150.58236
G0 F5400 X126.57 Y147.303
G1 F1800 X126.635 Y147.344 E150.61087
G1 X126.684 Y147.405 E150.6399
G1 X126.696 Y147.44 E150.65363
G1 X126.712 Y147.565 E150.70038
G1 X126.712 Y147.725 E150.75974
G1 X126.712 Y171.441 E159.55838
G1 X126.698 Y171.559 E159.60246
G1 X126.684 Y171.595 E159.61679
G1 X126.637 Y171.654 E159.64478
G1 X126.552 Y171.702 E159.68099
G1 X126.452 Y171.711 E159.71824
G1 X92.707 Y171.712 E172.23764
G1 X92.547 Y171.712 E172.297
G1 X92.43 Y171.697 E172.34076
G1 X92.365 Y171.656 E172.36927
G1 X92.316 Y171.595 E172.3983
G1 X92.304 Y171.56 E172.41203
G1 X92.288 Y171.435 E172.45878
G1 X92.288 Y171.275 E172.51814
G1 X92.288 Y147.559 E181.31678
G1 X92.302 Y147.441 E181.36086
G1 X92.316 Y147.405 E181.37519
G1 X92.363 Y147.346 E181.40318
G1 X92.448 Y147.298 E181.43939
G1 X92.548 Y147.289 E181.47664
G1 X126.293 Y147.288 E193.99604
G1 X126.453 Y147.288 E194.0554
G1 X126.57 Y147.303 E194.09916
G0 F5400 X126.671 Y146.656
;TYPE:WALL-OUTER
G1 F1800 X126.835 Y146.702 E194.16235
G1 X127.051 Y146.838 E194.25705
G1 X127.089 Y146.87 E194.27548
G1 X127.256 Y147.08 E194.37502
G1 X127.332 Y147.284 E194.45579
G1 X127.362 Y147.525 E194.54589
G1 X127.362 Y171.477 E203.43208
G1 X127.333 Y171.718 E203.52214
G1 X127.257 Y171.918 E203.60151
G1 X127.091 Y172.129 E203.70112
G1 X127.051 Y172.162 E203.72036
G1 X126.837 Y172.297 E203.81423
G1 X126.669 Y172.345 E203.87905
G1 X126.486 Y172.361 E203.9472
G1 X92.516 Y172.362 E216.55007
G1 X92.329 Y172.344 E216.61977
G1 X92.165 Y172.298 E216.68296
G1 X91.949 Y172.162 E216.77766
G1 X91.911 Y172.13 E216.79609
G1 X91.744 Y171.92 E216.89563
G1 X91.668 Y171.716 E216.9764
G1 X91.638 Y171.475 E217.0665
G1 X91.638 Y147.523 E225.95269
G1 X91.667 Y147.282 E226.04275
G1 X91.743 Y147.082 E226.12212
G1 X91.909 Y146.871 E226.22173
G1 X91.949 Y146.838 E226.24096
G1 X92.163 Y146.703 E226.33484
G1 X92.331 Y146.655 E226.39966
G1 X92.514 Y146.639 E226.46781
G1 X126.484 Y146.638 E239.07068
G1 X126.671 Y146.656 E239.14038
G0 F5400 X126.835 Y146.702
G0 X127.029 Y146.824
G0 X126.569 Y147.418
G0 X125.322 Y148.678
;TYPE:SKIN
G1 F1800 X125.322 Y170.321 E247.16993
G1 X93.678 Y170.322 E258.90986
G1 X93.678 Y148.679 E266.93941
G1 X125.322 Y148.678 E278.67933
G0 F5400 X124.244 Y148.993
G1 F1800 X125.007 Y149.756 E279.07966
G0 F5400 X125.007 Y150.745
G1 F1800 X123.254 Y148.993 E279.99915
G1 X123.131 Y148.87
G0 F5400 X122.264 Y148.993
G1 F1800 X125.007 Y151.735 E281.43806
G1 X125.13 Y151.858
G0 F5400 X125.007 Y152.725
G1 F1800 X121.274 Y148.993 E283.39641
G1 X121.151 Y148.87
G0 F5400 X120.284 Y148.993
G1 F1800 X125.007 Y153.715 E285.87418
G1 X125.13 Y153.838
G0 F5400 X125.007 Y154.705
G1 F1800 X119.294 Y148.993 E288.87137
G1 X119.171 Y148.87
G0 F5400 X118.304 Y148.993
G1 F1800 X125.007 Y155.695 E292.38799
G1 X125.13 Y155.818
G0 F5400 X125.007 Y156.685
G1 F1800 X117.314 Y148.993 E296.42404
G1 X117.191 Y148.87
G0 F5400 X116.324 Y148.993
G1 F1800 X125.007 Y157.675 E300.97952
G1 X125.13 Y157.798
G0 F5400 X125.007 Y158.665
G1 F1800 X115.334 Y148.993 E306.05442
G1 X115.211 Y148.87
G0 F5400 X114.344 Y148.993
G1 F1800 X125.007 Y159.655 E311.64875
G1 X125.13 Y159.778
G0 F5400 X125.007 Y160.645
G1 F1800 X113.354 Y148.993 E317.7625
G1 X113.231 Y148.87
G0 F5400 X112.364 Y148.993
G1 F1800 X125.007 Y161.635 E324.39568
G1 X125.13 Y161.758
G0 F5400 X125.007 Y162.625
G1 F1800 X111.374 Y148.993 E331.54829
G1 X111.251 Y148.87
G0 F5400 X110.385 Y148.993
G1 F1800 X125.007 Y163.615 E339.22006
G1 X125.13 Y163.738
G0 F5400 X125.007 Y164.605
G1 F1800 X109.395 Y148.993 E347.41126
G1 X109.272 Y148.87
G0 F5400 X108.405 Y148.993
G1 F1800 X125.007 Y165.595 E356.12189
G1 X125.13 Y165.718
G0 F5400 X125.007 Y166.585
G1 F1800 X107.415 Y148.993 E365.35194
G1 X107.292 Y148.87
G0 F5400 X106.425 Y148.993
G1 F1800 X125.007 Y167.575 E375.10142
G1 X125.13 Y167.698
G0 F5400 X125.007 Y168.565
G1 F1800 X105.435 Y148.993 E385.37032
G1 X105.312 Y148.87
G0 F5400 X104.445 Y148.993
G1 F1800 X125.007 Y169.555 E396.15865
G1 X125.13 Y169.678
G0 F5400 X124.467 Y170.005
G1 F1800 X103.455 Y148.993 E407.18309
G1 X103.332 Y148.87
G0 F5400 X102.465 Y148.993
G1 F1800 X123.477 Y170.005 E418.20752
G1 X123.6 Y170.128
G0 F5400 X122.487 Y170.005
G1 F1800 X101.475 Y148.993 E429.23196
G1 X101.352 Y148.87
G0 F5400 X100.485 Y148.993
G1 F1800 X121.497 Y170.005 E440.25639
G1 X121.62 Y170.128
G0 F5400 X120.507 Y170.005
G1 F1800 X99.495 Y148.993 E451.28082
G1 X99.372 Y148.87
G0 F5400 X98.505 Y148.993
G1 F1800 X119.518 Y170.005 E462.30552
G1 X119.641 Y170.128
G0 F5400 X118.528 Y170.005
G1 F1800 X97.515 Y148.993 E473.33022
G1 X97.392 Y148.87
G0 F5400 X96.525 Y148.993
G1 F1800 X117.538 Y170.005 E484.35491
G1 X117.661 Y170.128
G0 F5400 X116.548 Y170.005
G1 F1800 X95.535 Y148.993 E495.37961
G1 X95.412 Y148.87
G0 F5400 X94.545 Y148.993
G1 F1800 X115.558 Y170.005 E506.4043
G1 X115.681 Y170.128
G0 F5400 X114.568 Y170.005
G1 F1800 X93.992 Y149.43 E517.19972
G1 X93.869 Y149.307
G0 F5400 X93.992 Y150.419
G1 F1800 X113.578 Y170.005 E527.47597
G1 X113.701 Y170.128
G0 F5400 X112.588 Y170.005
G1 F1800 X93.992 Y151.409 E537.23279
G1 X93.869 Y151.286
G0 F5400 X93.992 Y152.399
G1 F1800 X111.598 Y170.005 E546.47019
G1 X111.721 Y170.128
G0 F5400 X110.608 Y170.005
G1 F1800 X93.992 Y153.389 E555.18816
G1 X93.869 Y153.266
G0 F5400 X93.992 Y154.379
G1 F1800 X109.618 Y170.005 E563.3867
G1 X109.741 Y170.128
G0 F5400 X108.629 Y170.006
G1 F1800 X93.992 Y155.369 E571.06635
G1 X93.869 Y155.246
G0 F5400 X93.992 Y156.359
G1 F1800 X107.639 Y170.006 E578.22656
G1 X107.762 Y170.129
G0 F5400 X106.649 Y170.006
G1 F1800 X93.992 Y157.349 E584.86735
G1 X93.869 Y157.226
G0 F5400 X93.992 Y158.339
G1 F1800 X105.659 Y170.006 E590.98871
G1 X105.782 Y170.129
G0 F5400 X104.669 Y170.006
G1 F1800 X93.992 Y159.329 E596.59065
G1 X93.869 Y159.206
G0 F5400 X93.992 Y160.319
G1 F1800 X103.679 Y170.006 E601.67316
G1 X103.802 Y170.129
G0 F5400 X102.689 Y170.006
G1 F1800 X93.992 Y161.309 E606.23624
G1 X93.869 Y161.186
G0 F5400 X93.992 Y162.299
G1 F1800 X101.699 Y170.006 E610.2799
G1 X101.822 Y170.129
G0 F5400 X100.709 Y170.006
G1 F1800 X93.992 Y163.289 E613.80413
G1 X93.869 Y163.166
G0 F5400 X93.992 Y164.279
G1 F1800 X99.719 Y170.006 E616.80893
G1 X99.842 Y170.129
G0 F5400 X98.729 Y170.006
G1 F1800 X93.992 Y165.269 E619.29431
G1 X93.869 Y165.146
G0 F5400 X93.992 Y166.259
G1 F1800 X97.739 Y170.006 E621.26026
G1 X97.862 Y170.129
G0 F5400 X96.749 Y170.006
G1 F1800 X93.992 Y167.249 E622.70678
G1 X93.869 Y167.126
G0 F5400 X93.992 Y168.239
G1 F1800 X95.759 Y170.006 E623.63388
G1 X95.882 Y170.129
G0 F5400 X94.769 Y170.006
G1 F1800 X93.992 Y169.229 E624.04155
G0 F5400 X126.181 Y148.169
;TIME_ELAPSED:63.354927
;LAYER:1
M106 S255
G0 F6300 X126.181 Y148.169 Z0.68
;TYPE:WALL-INNER
G1 F2499 X126.181 Y171.18 E626.45771
G1 X93.169 Y171.181 E629.92397
G1 X92.819 Y171.181 E629.96072
G1 X92.819 Y170.831 E629.9845
G1 X92.819 Y147.82 E632.40065
G1 X125.831 Y147.819 E635.86691
G1 X126.181 Y147.819 E635.90366
G1 X126.181 Y148.169 E635.92745
G0 F6300 X126.549 Y147.125
G1 F2499 X126.586 Y147.135 E635.93147
G1 X126.714 Y147.196 E635.94636
G1 X126.777 Y147.249 E635.955
G1 X126.841 Y147.35 E635.96756
G1 X126.867 Y147.421 E635.9755
G1 X126.881 Y147.558 E635.98996
G1 X126.881 Y147.604 E635.99479
G1 X126.881 Y171.438 E638.49736
G1 X126.865 Y171.587 E638.51309
G1 X126.843 Y171.645 E638.51961
G1 X126.774 Y171.754 E638.53315
G1 X126.707 Y171.812 E638.54246
G1 X126.597 Y171.861 E638.5551
G1 X126.545 Y171.875 E638.56076
G1 X126.467 Y171.88 E638.56896
G1 X92.585 Y171.881 E642.12657
G1 X92.539 Y171.881 E642.1314
G1 X92.451 Y171.875 E642.14066
G1 X92.414 Y171.865 E642.14469
G1 X92.286 Y171.804 E642.15958
G1 X92.223 Y171.751 E642.16822
G1 X92.159 Y171.65 E642.18078
G1 X92.133 Y171.579 E642.18871
G1 X92.119 Y171.442 E642.20317
G1 X92.119 Y171.396 E642.208
G1 X92.119 Y147.562 E644.71057
G1 X92.136 Y147.411 E644.72653
G1 X92.157 Y147.355 E644.73281
G1 X92.226 Y147.246 E644.74635
G1 X92.293 Y147.188 E644.75566
G1 X92.403 Y147.139 E644.7683
G1 X92.455 Y147.125 E644.77396
G1 X92.533 Y147.12 E644.78216
G1 X126.415 Y147.119 E648.33977
G1 X126.461 Y147.119 E648.3446
G1 X126.549 Y147.125 E648.35387
G0 F6300 X126.656 Y146.48
;TYPE:WALL-OUTER
G1 F1650 X126.812 Y146.522 E648.37083
G1 X127.072 Y146.646 E648.40108
G1 X127.232 Y146.783 E648.42319
G1 X127.287 Y146.841 E648.43159
G1 X127.427 Y147.061 E648.45897
G1 X127.506 Y147.276 E648.48302
G1 X127.531 Y147.521 E648.50888
G1 X127.531 Y171.474 E651.02394
G1 X127.502 Y171.736 E651.05162
G1 X127.428 Y171.938 E651.07421
G1 X127.285 Y172.163 E651.1022
G1 X127.239 Y172.212 E651.10926
G1 X127.076 Y172.352 E651.13182
G1 X127.028 Y172.381 E651.13771
G1 X126.817 Y172.475 E651.16196
G1 X126.654 Y172.52 E651.17972
G1 X126.491 Y172.53 E651.19686
G1 X92.512 Y172.531 E654.76466
G1 X92.344 Y172.52 E654.78234
G1 X92.188 Y172.478 E654.7993
G1 X91.928 Y172.354 E654.82954
G1 X91.768 Y172.217 E654.85166
G1 X91.713 Y172.159 E654.86005
G1 X91.573 Y171.939 E654.88744
G1 X91.494 Y171.724 E654.91149
G1 X91.469 Y171.479 E654.93734
G1 X91.469 Y147.526 E657.45241
G1 X91.498 Y147.264 E657.48009
G1 X91.572 Y147.062 E657.50268
G1 X91.715 Y146.837 E657.53067
G1 X91.761 Y146.788 E657.53773
G1 X91.924 Y146.648 E657.56029
G1 X91.972 Y146.619 E657.56618
G1 X92.183 Y146.525 E657.59043
G1 X92.346 Y146.48 E657.60818
G1 X92.509 Y146.47 E657.62533
G1 X126.488 Y146.469 E661.19313
G1 X126.656 Y146.48 E661.2108
G0 F6300 X126.812 Y146.522
G0 X127.027 Y146.624
G0 X126.66 Y147.28
G0 X125.491 Y148.509
;TYPE:SKIN
G1 F1500 X125.491 Y170.49 E663.51881
G1 X93.509 Y170.491 E666.87692
G1 X93.509 Y148.51 E669.18492
G1 X125.491 Y148.509 E672.54303
G0 F6300 X125.175 Y169.829
G0 X125.002 Y170.002
G1 F1500 X124.507 Y169.507 E672.66789
G1 X125.298 Y168.716
G0 F6300 X125.175 Y167.849
G1 F1500 X122.849 Y170.175 E673.01328
G1 X122.726 Y170.298
G0 F6300 X121.859 Y170.175
G1 F1500 X125.175 Y166.859 E673.50568
G1 X125.298 Y166.736
G0 F6300 X125.175 Y165.869
G1 F1500 X120.87 Y170.175 E674.14501
G1 X120.747 Y170.298
G0 F6300 X119.88 Y170.175
G1 F1500 X125.175 Y164.879 E674.93136
G1 X125.298 Y164.756
G0 F6300 X125.175 Y163.889
G1 F1500 X118.89 Y170.175 E675.8647
G1 X118.767 Y170.298
G0 F6300 X117.9 Y170.175
G1 F1500 X125.175 Y162.899 E676.94506
G1 X125.298 Y162.776
G0 F6300 X125.175 Y161.909
G1 F1500 X116.91 Y170.175 E678.17243
G1 X116.787 Y170.298
G0 F6300 X115.92 Y170.175
G1 F1500 X125.175 Y160.919 E679.5468
G1 X125.298 Y160.796
G0 F6300 X125.175 Y159.929
G1 F1500 X114.93 Y170.175 E681.06818
G1 X114.807 Y170.298
G0 F6300 X113.94 Y170.175
G1 F1500 X125.175 Y158.939 E682.73656
G1 X125.298 Y158.816
G0 F6300 X125.175 Y157.949
G1 F1500 X112.95 Y170.175 E684.55196
G1 X112.827 Y170.298
G0 F6300 X111.96 Y170.175
G1 F1500 X125.175 Y156.96 E686.51428
G1 X125.298 Y156.837
G0 F6300 X125.175 Y155.97
G1 F1500 X110.97 Y170.175 E688.62362
G1 X110.847 Y170.298
G0 F6300 X109.98 Y170.175
G1 F1500 X125.175 Y154.98 E690.87996
G1 X125.298 Y154.857
G0 F6300 X125.175 Y153.99
G1 F1500 X108.989 Y170.175 E693.28339
G1 X108.866 Y170.298
G0 F6300 X107.999 Y170.175
G1 F1500 X125.175 Y153 E695.83382
G1 X125.298 Y152.877
G0 F6300 X125.175 Y152.01
G1 F1500 X107.01 Y170.175 E698.53118
G1 X106.887 Y170.298
G0 F6300 X106.02 Y170.175
G1 F1500 X125.175 Y151.02 E701.37555
G1 X125.298 Y150.897
